assets/images/dog-w-background.svg

<svg fill="none" xmlns="http://www.w3.org/2000/svg" viewBox="0 0 211 217">
  <path fill="#1E1E1E" d="M0 0h211v217H0z"/>
  <g clip-path="url(#a)">
    <path fill="#fff" d="M0 0h211v217H0z"/>
    <!-- Triangle in background-->
    <path d="M118.996 191.031-1 90.2905 210.708 64l-91.712 127.031Z" fill="#DCDBB3"/>
    <!-- Dog -->
    <path d="M40.2891 85c0 4.5838 2.059 1.6331 5.3021-3.0142C49.5769 76.2743 55.3511 68 61.2891 68c5.9129 0 11.2112 7.451 14.7873 12.4801 2.9372 4.1306 4.7127 6.6275 4.7127 2.0199 0-10.2173-24.2305-30.5-35-30.5-8.3156 0-7.0687 13.5829-6.0688 24.4765.2951 3.2148.5688 6.1954.5688 8.5235ZM168.289 85c0 4.5838-2.059 1.6331-5.302-3.0142C159.001 76.2743 153.227 68 147.289 68c-5.913 0-11.211 7.451-14.787 12.4801-2.938 4.1306-4.713 6.6275-4.713 2.0199 0-10.2173 24.231-30.5 35-30.5 8.316 0 7.069 13.5829 6.069 24.4765-.295 3.2148-.569 6.1954-.569 8.5235ZM85.2891 112.5c0 3.038-2.4625 5.5-5.5 5.5-3.0376 0-5.5-2.462-5.5-5.5s2.4624-5.5 5.5-5.5c3.0375 0 5.5 2.462 5.5 5.5ZM121.289 118c3.314 0 6-2.462 6-5.5s-2.686-5.5-6-5.5-6 2.462-6 5.5 2.686 5.5 6 5.5ZM106.289 130.5c0 3.038-2.462 5.5-5.5 5.5-3.0375 0-5.4999-2.462-5.4999-5.5s2.4624-5.5 5.4999-5.5c3.038 0 5.5 2.462 5.5 5.5ZM124.067 82.797c2.047.6836 3.222 1.0762 3.222.703 0-1.1046-10.297-8-23-8-12.7025 0-22.9999 6.8954-22.9999 8 0 .3732 1.1753-.0194 3.2216-.703C88.5215 81.4573 95.878 79 104.289 79c8.411 0 15.768 2.4573 19.778 3.797ZM134.776 129.387c-5.188 8.928-13.717 14.991-18.61 18.47-2.697 1.918-4.29 3.05-3.611 3.444 1.91 1.11 15.687-5.953 23.734-19.801 8.048-13.848 7.319-29.235 5.409-30.345-.651-.379-.727 1.17-.864 3.925-.264 5.33-.752 15.177-6.058 24.307ZM86.9606 147.857c-4.8934-3.479-13.4216-9.542-18.6099-18.47-5.3061-9.13-5.794-18.977-6.0582-24.307-.1364-2.755-.2132-4.304-.8638-3.925-1.91 1.11-2.6388 16.497 5.4088 30.345 8.0476 13.848 21.8239 20.911 23.734 19.801.6786-.394-.9142-1.526-3.6109-3.444Z" fill="#C17606"/>
  </g>
  <defs>
    <clipPath id="a">
      <path fill="#fff" d="M0 0h211v217H0z"/>
    </clipPath>
  </defs>
</svg>

<svg width="211" height="217" viewBox="0 0 211 217" fill="none" xmlns="http://www.w3.org/2000/svg">
<rect width="211" height="217" fill="#1E1E1E"/>
<g clip-path="url(#clip0_0_1)">
<rect width="211" height="217" fill="white"/>
<!-- Triangle Background -->
<path d="M118.996 191.031L-1 90.2905L210.708 64L118.996 191.031Z" fill="#DCDBB3"/>
<!-- Left Ear -->
<path d="M40.2891 85C40.2891 89.5838 42.3481 86.6331 45.5912 81.9858C49.5769 76.2743 55.3511 68 61.2891 68C67.202 68 72.5003 75.451 76.0764 80.4801C79.0136 84.6107 80.7891 87.1076 80.7891 82.5C80.7891 72.2827 56.5586 52 45.7891 52C37.4735 52 38.7204 65.5829 39.7203 76.4765C40.0154 79.6913 40.2891 82.6719 40.2891 85Z" fill="#C17606"/>
<!-- Right Ear -->
<path d="M168.289 85C168.289 89.5838 166.23 86.6331 162.987 81.9858C159.001 76.2743 153.227 68 147.289 68C141.376 68 136.078 75.451 132.502 80.4801C129.564 84.6107 127.789 87.1076 127.789 82.5C127.789 72.2827 152.02 52 162.789 52C171.105 52 169.858 65.5829 168.858 76.4765C168.563 79.6913 168.289 82.6719 168.289 85Z" fill="#C17606"/>
<!-- Eyes, left top, right bottom-->
<path d="M85.2891 112.5C85.2891 115.538 82.8266 118 79.7891 118C76.7515 118 74.2891 115.538 74.2891 112.5C74.2891 109.462 76.7515 107 79.7891 107C82.8266 107 85.2891 109.462 85.2891 112.5Z" fill="#C17606"/>
<path d="M121.289 118C124.603 118 127.289 115.538 127.289 112.5C127.289 109.462 124.603 107 121.289 107C117.975 107 115.289 109.462 115.289 112.5C115.289 115.538 117.975 118 121.289 118Z" fill="#C17606"/>
<!-- Nose -->
<path d="M106.289 130.5C106.289 133.538 103.827 136 100.789 136C97.7515 136 95.2891 133.538 95.2891 130.5C95.2891 127.462 97.7515 125 100.789 125C103.827 125 106.289 127.462 106.289 130.5Z" fill="#C17606"/>
<path d="M124.067 82.797C126.114 83.4806 127.289 83.8732 127.289 83.5C127.289 82.3954 116.992 75.5 104.289 75.5C91.5865 75.5 81.2891 82.3954 81.2891 83.5C81.2891 83.8732 82.4644 83.4806 84.5107 82.797C88.5215 81.4573 95.878 79 104.289 79C112.7 79 120.057 81.4573 124.067 82.797Z" fill="#C17606"/>
<!-- Right Cheek -->
<path d="M134.776 129.387C129.588 138.315 121.059 144.378 116.166 147.857C113.469 149.775 111.876 150.907 112.555 151.301C114.465 152.411 128.242 145.348 136.289 131.5C144.337 117.652 143.608 102.265 141.698 101.155C141.047 100.776 140.971 102.325 140.834 105.08C140.57 110.41 140.082 120.257 134.776 129.387Z" fill="#C17606"/>
<!-- Left Cheek -->
<path d="M86.9606 147.857C82.0672 144.378 73.539 138.315 68.3507 129.387C63.0446 120.257 62.5567 110.41 62.2925 105.08C62.1561 102.325 62.0793 100.776 61.4287 101.155C59.5187 102.265 58.7899 117.652 66.8375 131.5C74.8851 145.348 88.6614 152.411 90.5715 151.301C91.2501 150.907 89.6573 149.775 86.9606 147.857Z" fill="#C17606"/>
</g>
<defs>
<clipPath id="clip0_0_1">
<rect width="211" height="217" fill="white"/>
</clipPath>
</defs>
</svg>
